lib/assets/icons/svg/outlined-social-person.svg

<svg xmlns="http://www.w3.org/2000/svg" viewBox="0 0 24 24"><path d="M11.75 11.76c-.106 0-.211-.004-.314-.011A6.27 6.27 0 0 0 5.5 18a.5.5 0 0 1-1 0c0-3.22 2.096-5.95 4.999-6.901-1.736-1.133-2.49-3.518-1.326-5.534 1.59-2.753 5.564-2.753 7.154 0a4.128 4.128 0 0 1-1.335 5.534A7.273 7.273 0 0 1 19 18a.51.51 0 0 1-.5.5.5.5 0 0 1-.5-.5 6.27 6.27 0 0 0-5.94-6.251 4.563 4.563 0 0 1-.31.011zm0-7.26c-2.409 0-3.915 2.608-2.711 4.695a3.092 3.092 0 0 0 2.414 1.551 7.319 7.319 0 0 1 .591.001 3.096 3.096 0 0 0 2.417-1.552 3.139 3.139 0 0 0 .419-1.565 3.14 3.14 0 0 0-3.13-3.13z"/></svg>

<svg viewBox="0 0 24 24" xmlns="http://www.w3.org/2000/svg">
  <path  d="M 11.75 11.76 C 11.644 11.76 11.539 11.756 11.436 11.749 C 8.131 11.922 5.505 14.655 5.5 18 C 5.5 18.276 5.276 18.5 5 18.5 C 4.724 18.5 4.5 18.276 4.5 18 C 4.5 14.78 6.596 12.05 9.499 11.099 C 7.763 9.966 7.009 7.581 8.173 5.565 C 9.763 2.812 13.737 2.812 15.327 5.565 C 15.689 6.193 15.88 6.905 15.88 7.63 C 15.88 9.084 15.128 10.363 13.992 11.099 C 16.897 12.049 18.996 14.78 19 18 C 18.995 18.274 18.774 18.495 18.5 18.5 C 18.224 18.5 18 18.276 18 18 C 17.994 14.652 15.366 11.92 12.06 11.749 C 11.957 11.756 11.854 11.76 11.75 11.76 Z M 11.75 4.5 C 9.341 4.5 7.835 7.108 9.039 9.195 C 9.585 10.14 10.501 10.658 11.453 10.746 C 11.551 10.742 11.651 10.74 11.75 10.74 C 11.849 10.74 11.947 10.743 12.044 10.747 C 12.997 10.658 13.915 10.141 14.461 9.195 C 14.735 8.719 14.88 8.179 14.88 7.63 C 14.875 5.904 13.476 4.505 11.75 4.5 Z"/>
</svg>
